main/assets/img/bag-icon-white.svg

<svg height="23" viewBox="0 0 21 23" width="21" xmlns="http://www.w3.org/2000/svg"><g fill="#fff"><path d="m17.521875 23h-14.04375c-1.55549275-.0072989-2.81469016-1.2864836-2.821875-2.8666667l.76125-9.6533333c0-1.66666667 2.165625-2.81333333 3.59625-2.81333333h10.9725c1.430625 0 3.59625 1.14666666 3.59625 2.86666663l.7614903 9.5466667c.0067538.7673694-.2866284 1.5061284-.8158395 2.0537418-.5292111.5476133-1.250896.8592183-2.0062758.8662582zm-12.508125-14c-.945 0-2.28375.8-2.28375 1.5333333l-.76125 9.6533334c.02829639.8259385.69584965 1.4805 1.509375 1.4800006h14.04375c.8306334-.0072441 1.5022447-.6895159 1.509375-1.533334l-.76125-9.5466666c0-.7866667-1.3125-1.5866667-2.28375-1.5866667z"/><path d="m14.4375 11.6666667h-.65625c-.3624369 0-.65625-.2984769-.65625-.6666667s.2938131-.6666667.65625-.6666667v-5.3333333c0-1.47275933-1.1752525-2.66666667-2.625-2.66666667h-1.3125c-1.44974747 0-2.625 1.19390734-2.625 2.66666667v5.3333333c.36243687 0 .65625.2984769.65625.6666667s-.29381313.6666667-.65625.6666667h-.65625c-.36243687 0-.65625-.2984769-.65625-.6666667v-6.02666667c0-2.209139 1.7628788-4 3.9375-4h1.3125c2.1746212 0 3.9375 1.790861 3.9375 4v6.02666667c0 .3681898-.2938131.6666667-.65625.6666667z"/></g></svg>

<?xml version="1.0" encoding="UTF-8"?>
<svg width="21px" height="23px" viewBox="0 0 21 23" version="1.1" xmlns="http://www.w3.org/2000/svg" xmlns:xlink="http://www.w3.org/1999/xlink">
    <!-- Generator: Sketch 61 (89581) - https://sketch.com -->
    <title>bag-icon</title>
    <desc>Created with Sketch.</desc>
    <g id="Page-1" stroke="none" stroke-width="1" fill="none" fill-rule="evenodd">
        <g id="bag-icon" fill="#FFFFFF" fill-rule="nonzero">
            <path d="M17.521875,23 L3.478125,23 C1.92263225,22.9927011 0.663434839,21.7135164 0.65625,20.1333333 L1.4175,10.48 C1.4175,8.81333333 3.583125,7.66666667 5.01375,7.66666667 L15.98625,7.66666667 C17.416875,7.66666667 19.5825,8.81333333 19.5825,10.5333333 L20.3439903,20.08 C20.3507441,20.8473694 20.0573619,21.5861284 19.5281508,22.1337418 C18.9989397,22.6813551 18.2772548,22.9929601 17.521875,23 Z M5.01375,9 C4.06875,9 2.73,9.8 2.73,10.5333333 L1.96875,20.1866667 C1.99704639,21.0126052 2.66459965,21.6671667 3.478125,21.6666673 L17.521875,21.6666673 C18.3525084,21.6594232 19.0241197,20.9771514 19.03125,20.1333333 L18.27,10.5866667 C18.27,9.8 16.9575,9 15.98625,9 L5.01375,9 Z" id="Shape"></path>
            <path d="M14.4375,11.6666667 L13.78125,11.6666667 C13.4188131,11.6666667 13.125,11.3681898 13.125,11 C13.125,10.6318102 13.4188131,10.3333333 13.78125,10.3333333 L13.78125,5 C13.78125,3.52724067 12.6059975,2.33333333 11.15625,2.33333333 L9.84375,2.33333333 C8.39400253,2.33333333 7.21875,3.52724067 7.21875,5 L7.21875,10.3333333 C7.58118687,10.3333333 7.875,10.6318102 7.875,11 C7.875,11.3681898 7.58118687,11.6666667 7.21875,11.6666667 L6.5625,11.6666667 C6.20006313,11.6666667 5.90625,11.3681898 5.90625,11 L5.90625,4.97333333 C5.90625,2.76419433 7.6691288,0.973333333 9.84375,0.973333333 L11.15625,0.973333333 C13.3308712,0.973333333 15.09375,2.76419433 15.09375,4.97333333 L15.09375,11 C15.09375,11.3681898 14.7999369,11.6666667 14.4375,11.6666667 Z" id="Path"></path>
        </g>
    </g>
</svg>
